X:286
%%etbk:tnset id:87,pos:3,rep:3x,ant:
%%etbk:wsite http://www.thesession.org/tunes/display/1447
%%etbk:skill ?
%%etbk:pldat 2013-11-24T14:57,2013-05-13T19:14
T: Whelan's Fancy
Z: Piano Box Version by Martin Fleischmann
H: Created 2013-02-19 /  Last Modified 2013-02-19
M: 6/8
L: 1/8
R: jig
K: Edor
|: "em"!1!E!2!E!1!E !5!BA!2!F | !2!F!1!E!5!B !4!A!2!F!1!D | !1!E!2!E!1!E !5!B!4!A!2!F | "D"!5!d!3!A!2!F !3!FE!1!D |
"em"!1!E!2!E!1!E !5!BA!2!F | !2!F!1!E!5!B !4!A!2!F!4!A | "bm"!1!A!2!BB {d}B!1!A!2!F | !5!d!3!A!2!F !3!FE!1!D:|
|: "em"!2!BAB !5!e2!2!e | !3!fed !2!eee | !1!B!2!B!1!B !4!gfe | "D"!3!f!1!d!2!B !1!A!2!F!1!A |
"em"!2!BAB !5!e2!2!e | !3!fed !2!e2f | "bm"!4!g!2!ee !5!a!1!dd | !3!(3fe!1!d !2!B !1!A!2!F!1!A:|
